src/assets/icons/therapy.svg

<svg id="Capa_1" enable-background="new 0 0 512 512" height="512" viewBox="0 0 512 512" width="512" xmlns="http://www.w3.org/2000/svg"><g><g><g><g><path d="m322.989 263.265c28.814-1.423 46.544-19.997 46.544-49.192 0-2.182-.127-4.37-.38-6.538 19.325-12.344 27.636-28.87 27.636-54.486 0-25.609-8.312-42.136-27.636-54.485.253-2.169.38-4.356.38-6.538 0-29.195-17.73-47.769-46.545-49.192-7.717-14.4-22.812-23.336-40.271-23.578-10.18-.134-18.515 2.928-24.797 9.124-.668.659-1.308 1.352-1.921 2.077-.613-.725-1.252-1.418-1.921-2.077-6.283-6.196-14.633-9.26-24.797-9.124-17.457.243-32.55 9.176-40.272 23.578-28.814 1.423-46.544 19.997-46.544 49.192 0 2.182.128 4.37.38 6.538-19.325 12.344-27.636 28.87-27.636 54.486 0 25.609 8.312 42.136 27.636 54.485-.253 2.169-.38 4.356-.38 6.538 0 29.195 17.73 47.769 46.545 49.192 7.717 14.4 22.812 23.336 40.271 23.578.225.003.448.005.671.005 9.867 0 17.982-3.069 24.126-9.128.668-.659 1.308-1.352 1.921-2.078.613.725 1.252 1.419 1.921 2.078 6.144 6.059 14.257 9.128 24.125 9.128.223 0 .447-.002.671-.005 17.459-.243 32.551-9.176 40.273-23.578zm-76.989-22.581c0 11.065-2.063 18.948-5.964 22.795-2.363 2.33-5.799 3.434-10.476 3.366-10.395-.144-19.237-5.437-23.36-13.89 1.402-2.623 3.504-4.807 6.134-6.328 3.696-2.137 8-2.705 12.117-1.599 5.331 1.434 10.819-1.73 12.251-7.064 1.433-5.334-1.73-10.819-7.064-12.252-9.287-2.493-18.987-1.215-27.315 3.601-5.808 3.359-10.465 8.155-13.603 13.906-17.426-1.236-26.254-11.025-26.254-29.146 0-2.304.22-4.613.654-6.87 1.135-5.911-1.594-11.889-6.783-14.872-15.598-8.98-21.126-19.259-21.126-39.281 0-20.024 5.528-30.304 21.12-39.278 5.195-2.986 7.923-8.963 6.788-14.883-.434-2.252-.653-4.561-.653-6.863 0-19.429 10.147-29.28 30.16-29.28h.12c.292 0 .583-.01.872-.027 5.121 2.154 8.005 7.863 6.528 13.42-1.419 5.337 1.757 10.814 7.094 12.234.861.229 1.725.338 2.576.338 4.422 0 8.467-2.956 9.658-7.433 3.274-12.31-1.264-24.905-10.544-32.46 4.695-5.898 12.145-9.446 20.631-9.564 4.684-.067 8.112 1.036 10.476 3.366 3.901 3.847 5.963 11.73 5.963 22.796zm65.854-10.723c1.419-5.337-1.757-10.814-7.094-12.234-5.336-1.42-10.815 1.757-12.234 7.094-3.274 12.311 1.264 24.905 10.544 32.46-4.695 5.898-12.146 9.446-20.631 9.564-4.685.08-8.113-1.036-10.476-3.366-3.901-3.847-5.963-11.73-5.963-22.795v-175.268c0-11.065 2.063-18.948 5.964-22.795 2.363-2.33 5.79-3.434 10.476-3.366 10.395.144 19.237 5.437 23.36 13.89-1.402 2.623-3.504 4.807-6.134 6.328-3.696 2.137-7.999 2.705-12.117 1.599-5.331-1.433-10.819 1.73-12.251 7.064-1.433 5.333 1.73 10.819 7.064 12.251 3.102.833 6.249 1.245 9.377 1.245 6.236 0 12.392-1.639 17.938-4.846 5.808-3.359 10.465-8.155 13.603-13.906 17.426 1.236 26.254 11.025 26.254 29.146 0 2.304-.22 4.613-.654 6.87-1.135 5.911 1.594 11.889 6.783 14.872 15.598 8.98 21.126 19.259 21.126 39.281 0 20.024-5.528 30.304-21.12 39.278-5.195 2.986-7.923 8.963-6.789 14.883.434 2.252.653 4.561.653 6.863 0 19.429-10.147 29.28-30.16 29.28h-.078c-.308-.001-.613.008-.917.026-5.118-2.154-8.001-7.863-6.524-13.418z"/><path d="m199.278 132.583c-11.829 0-22.113 6.749-26.838 17.613-4.699 10.803-2.64 22.854 5.375 31.454.385.413.779.821 1.182 1.223 1.952 1.949 4.509 2.923 7.065 2.923 2.562 0 5.124-.979 7.077-2.935 3.902-3.908 3.897-10.24-.011-14.142-.234-.233-.463-.471-.684-.708-3.759-4.034-2.224-8.55-1.663-9.838.57-1.311 2.869-5.59 8.498-5.59 5.523 0 10-4.477 10-10-.001-5.523-4.478-10-10.001-10z"/><path d="m318.873 168.719c-3.909 3.902-3.913 10.234-.011 14.142 1.954 1.957 4.515 2.935 7.077 2.935 2.557 0 5.114-.975 7.065-2.923.403-.402.797-.811 1.184-1.225 8.013-8.597 10.071-20.648 5.372-31.451-4.725-10.864-15.009-17.613-26.838-17.613-5.523 0-10 4.477-10 10s4.477 10 10 10c5.629 0 7.928 4.279 8.498 5.59.561 1.288 2.096 5.804-1.661 9.835-.223.24-.452.477-.686.71z"/><path d="m166.665 288.354-69.713-68.693v-73.959c0-16.709-13.594-30.303-30.303-30.303-.158 0-1.03.018-1.048.018-1.709.059-3.406.265-5.071.61v-7.393c0-16.534-12.673-30.082-28.852-30.843-8.602-.409-17.362 2.807-23.425 8.592-5.168 4.928-8.013 11.351-8.013 18.084 0 23.586-.144 133.467-.24 167.864-.002.812.004 1.618.02 2.423.468 24.509 11.33 48.303 29.8 65.279.158.146.321.286.489.421l77.976 62.897v79.396c0 5.523 4.477 10 10 10h70.292c5.523 0 10-4.477 10-10v-118.15c0-28.471-11.631-56.26-31.912-76.243zm-100.436-152.947.419-.008c5.681 0 10.303 4.622 10.303 10.303v62.556c-5.465-.897-11.127-.377-16.423 1.591v-72.438c1.661-1.231 3.618-1.921 5.701-2.004zm112.348 337.341h-50.292v-74.178c0-3.024-1.368-5.885-3.722-7.784l-81.438-65.689c-14.328-13.283-22.747-31.753-23.109-50.721-.012-.66-.018-1.324-.016-1.991.095-34.407.24-144.325.24-167.918 0-1.248.611-2.463 1.817-3.614 2.12-2.022 5.523-3.227 8.68-3.085 5.399.254 9.792 5.128 9.792 10.865v122.916c-.337 1.214-.605 2.454-.802 3.715-1.569 10.068 1.744 20.407 8.866 27.676l70.435 73.683c3.816 3.992 10.146 4.135 14.139.318 3.992-3.816 4.135-10.147.318-14.139l-70.48-73.73c-.034-.036-.069-.071-.104-.106-2.781-2.824-4.025-6.695-3.413-10.62.392-2.509 1.525-4.798 3.296-6.648.32-.292.975-.885 1.31-1.187 4.962-3.9 11.999-3.46 16.457 1.065.035.036.07.07.105.105l71.971 70.917c16.491 16.249 25.949 38.846 25.949 61.998v108.152z"/><path d="m511.76 104.467c0-6.733-2.845-13.156-8.012-18.085-6.063-5.785-14.815-8.993-23.425-8.592-16.179.761-28.853 14.309-28.853 30.843v7.392c-1.662-.344-3.354-.55-5.057-.608-.021 0-.902-.019-1.063-.019-16.71 0-30.303 13.594-30.303 30.303v73.959l-69.713 68.693c-20.28 19.983-31.912 47.772-31.912 76.244v118.15c0 5.523 4.477 10 10 10h70.292c5.523 0 10-4.477 10-10v-79.396l77.976-62.897c.168-.135.331-.275.489-.421 18.47-16.977 29.333-40.77 29.8-65.283.015-.801.021-1.607.019-2.421-.094-34.395-.238-144.276-.238-167.862zm-66.474 30.931.489.009c2.081.083 4.037.773 5.696 2.004v72.433c-5.293-1.966-10.956-2.485-16.423-1.587v-62.556c0-5.68 4.622-10.302 10.238-10.303zm46.698 138.975c-.362 18.972-8.781 37.442-23.109 50.725l-81.439 65.689c-2.353 1.898-3.722 4.76-3.722 7.784v74.177h-50.292v-108.15c0-23.151 9.458-45.749 25.949-61.998l71.97-70.917c.036-.035.071-.07.105-.105 4.461-4.528 11.508-4.967 16.453-1.07.335.302.997.902 1.318 1.194 1.764 1.838 2.901 4.13 3.292 6.644.612 3.926-.631 7.797-3.413 10.621-.028.028-.056.057-.083.085l-35.524 36.945c-3.828 3.981-3.704 10.311.277 14.14 3.98 3.827 10.311 3.705 14.14-.277l35.49-36.91c7.128-7.27 10.444-17.613 8.874-27.686-.197-1.261-.465-2.501-.802-3.714v-122.917c0-5.737 4.393-10.611 9.792-10.865 3.16-.142 6.56 1.063 8.68 3.085 1.206 1.15 1.817 2.366 1.817 3.614 0 23.594.145 133.511.24 167.917.004.668-.001 1.333-.013 1.989z"/><path d="m398.53 321.88c-1.638-3.995-5.828-6.524-10.127-6.135-4.127.374-7.694 3.361-8.758 7.369-1.058 3.985.483 8.308 3.833 10.717 3.384 2.434 8.083 2.471 11.507.094 3.821-2.651 5.336-7.746 3.545-12.045z"/></g></g></g></g></svg>

<svg width="512" height="512" viewBox="0 0 512 512" fill="none" xmlns="http://www.w3.org/2000/svg">
<g clip-path="url(#clip0)">
<path d="M322.989 263.265C351.803 261.842 369.533 243.268 369.533 214.073C369.533 211.891 369.406 209.703 369.153 207.535C388.478 195.191 396.789 178.665 396.789 153.049C396.789 127.44 388.477 110.913 369.153 98.564C369.406 96.395 369.533 94.208 369.533 92.026C369.533 62.831 351.803 44.257 322.988 42.834C315.271 28.434 300.176 19.498 282.717 19.256C272.537 19.122 264.202 22.184 257.92 28.38C257.252 29.039 256.612 29.732 255.999 30.457C255.386 29.732 254.747 29.039 254.078 28.38C247.795 22.184 239.445 19.12 229.281 19.256C211.824 19.499 196.731 28.432 189.009 42.834C160.195 44.257 142.465 62.831 142.465 92.026C142.465 94.208 142.593 96.396 142.845 98.564C123.52 110.908 115.209 127.434 115.209 153.05C115.209 178.659 123.521 195.186 142.845 207.535C142.592 209.704 142.465 211.891 142.465 214.073C142.465 243.268 160.195 261.842 189.01 263.265C196.727 277.665 211.822 286.601 229.281 286.843C229.506 286.846 229.729 286.848 229.952 286.848C239.819 286.848 247.934 283.779 254.078 277.72C254.746 277.061 255.386 276.368 255.999 275.642C256.612 276.367 257.251 277.061 257.92 277.72C264.064 283.779 272.177 286.848 282.045 286.848C282.268 286.848 282.492 286.846 282.716 286.843C300.175 286.6 315.267 277.667 322.989 263.265ZM246 240.684C246 251.749 243.937 259.632 240.036 263.479C237.673 265.809 234.237 266.913 229.56 266.845C219.165 266.701 210.323 261.408 206.2 252.955C207.602 250.332 209.704 248.148 212.334 246.627C216.03 244.49 220.334 243.922 224.451 245.028C229.782 246.462 235.27 243.298 236.702 237.964C238.135 232.63 234.972 227.145 229.638 225.712C220.351 223.219 210.651 224.497 202.323 229.313C196.515 232.672 191.858 237.468 188.72 243.219C171.294 241.983 162.466 232.194 162.466 214.073C162.466 211.769 162.686 209.46 163.12 207.203C164.255 201.292 161.526 195.314 156.337 192.331C140.739 183.351 135.211 173.072 135.211 153.05C135.211 133.026 140.739 122.746 156.331 113.772C161.526 110.786 164.254 104.809 163.119 98.889C162.685 96.637 162.466 94.328 162.466 92.026C162.466 72.597 172.613 62.746 192.626 62.746H192.746C193.038 62.746 193.329 62.736 193.618 62.719C198.739 64.873 201.623 70.582 200.146 76.139C198.727 81.476 201.903 86.953 207.24 88.373C208.101 88.602 208.965 88.711 209.816 88.711C214.238 88.711 218.283 85.755 219.474 81.278C222.748 68.968 218.21 56.373 208.93 48.818C213.625 42.92 221.075 39.372 229.561 39.254C234.245 39.187 237.673 40.29 240.037 42.62C243.938 46.467 246 54.35 246 65.416V240.684ZM311.854 229.961C313.273 224.624 310.097 219.147 304.76 217.727C299.424 216.307 293.945 219.484 292.526 224.821C289.252 237.132 293.79 249.726 303.07 257.281C298.375 263.179 290.924 266.727 282.439 266.845C277.754 266.925 274.326 265.809 271.963 263.479C268.062 259.632 266 251.749 266 240.684V65.416C266 54.351 268.063 46.468 271.964 42.621C274.327 40.291 277.754 39.187 282.44 39.255C292.835 39.399 301.677 44.692 305.8 53.145C304.398 55.768 302.296 57.952 299.666 59.473C295.97 61.61 291.667 62.178 287.549 61.072C282.218 59.639 276.73 62.802 275.298 68.136C273.865 73.469 277.028 78.955 282.362 80.387C285.464 81.22 288.611 81.632 291.739 81.632C297.975 81.632 304.131 79.993 309.677 76.786C315.485 73.427 320.142 68.631 323.28 62.88C340.706 64.116 349.534 73.905 349.534 92.026C349.534 94.33 349.314 96.639 348.88 98.896C347.745 104.807 350.474 110.785 355.663 113.768C371.261 122.748 376.789 133.027 376.789 153.049C376.789 173.073 371.261 183.353 355.669 192.327C350.474 195.313 347.746 201.29 348.88 207.21C349.314 209.462 349.533 211.771 349.533 214.073C349.533 233.502 339.386 243.353 319.373 243.353H319.295C318.987 243.352 318.682 243.361 318.378 243.379C313.26 241.225 310.377 235.516 311.854 229.961V229.961Z" fill="#F26D3D"/>
<path d="M199.278 132.583C187.449 132.583 177.165 139.332 172.44 150.196C167.741 160.999 169.8 173.05 177.815 181.65C178.2 182.063 178.594 182.471 178.997 182.873C180.949 184.822 183.506 185.796 186.062 185.796C188.624 185.796 191.186 184.817 193.139 182.861C197.041 178.953 197.036 172.621 193.128 168.719C192.894 168.486 192.665 168.248 192.444 168.011C188.685 163.977 190.22 159.461 190.781 158.173C191.351 156.862 193.65 152.583 199.279 152.583C204.802 152.583 209.279 148.106 209.279 142.583C209.278 137.06 204.801 132.583 199.278 132.583V132.583Z" fill="#F26D3D"/>
<path d="M318.873 168.719C314.964 172.621 314.96 178.953 318.862 182.861C320.816 184.818 323.377 185.796 325.939 185.796C328.496 185.796 331.053 184.821 333.004 182.873C333.407 182.471 333.801 182.062 334.188 181.648C342.201 173.051 344.259 161 339.56 150.197C334.835 139.333 324.551 132.584 312.722 132.584C307.199 132.584 302.722 137.061 302.722 142.584C302.722 148.107 307.199 152.584 312.722 152.584C318.351 152.584 320.65 156.863 321.22 158.174C321.781 159.462 323.316 163.978 319.559 168.009C319.336 168.249 319.107 168.486 318.873 168.719V168.719Z" fill="#F26D3D"/>
<path d="M166.665 288.354L96.9519 219.661V145.702C96.9519 128.993 83.3579 115.399 66.6489 115.399C66.4909 115.399 65.6189 115.417 65.6009 115.417C63.8919 115.476 62.1949 115.682 60.5299 116.027V108.634C60.5299 92.1 47.8569 78.552 31.6779 77.791C23.0759 77.382 14.3159 80.598 8.25288 86.383C3.08488 91.311 0.239883 97.734 0.239883 104.467C0.239883 128.053 0.0958829 237.934 -0.000117099 272.331C-0.0021171 273.143 0.0038829 273.949 0.0198829 274.754C0.487883 299.263 11.3499 323.057 29.8199 340.033C29.9779 340.179 30.1409 340.319 30.3089 340.454L108.285 403.351V482.747C108.285 488.27 112.762 492.747 118.285 492.747H188.577C194.1 492.747 198.577 488.27 198.577 482.747V364.597C198.577 336.126 186.946 308.337 166.665 288.354ZM66.2289 135.407L66.6479 135.399C72.3289 135.399 76.9509 140.021 76.9509 145.702V208.258C71.4859 207.361 65.8239 207.881 60.5279 209.849V137.411C62.1889 136.18 64.1459 135.49 66.2289 135.407V135.407ZM178.577 472.748H128.285V398.57C128.285 395.546 126.917 392.685 124.563 390.786L43.1249 325.097C28.7969 311.814 20.3779 293.344 20.0159 274.376C20.0039 273.716 19.9979 273.052 19.9999 272.385C20.0949 237.978 20.2399 128.06 20.2399 104.467C20.2399 103.219 20.8509 102.004 22.0569 100.853C24.1769 98.831 27.5799 97.626 30.7369 97.768C36.1359 98.022 40.5289 102.896 40.5289 108.633V231.549C40.1919 232.763 39.9239 234.003 39.7269 235.264C38.1579 245.332 41.4709 255.671 48.5929 262.94L119.028 336.623C122.844 340.615 129.174 340.758 133.167 336.941C137.159 333.125 137.302 326.794 133.485 322.802L63.0049 249.072C62.9709 249.036 62.9359 249.001 62.9009 248.966C60.1199 246.142 58.8759 242.271 59.4879 238.346C59.8799 235.837 61.0129 233.548 62.7839 231.698C63.1039 231.406 63.7589 230.813 64.0939 230.511C69.0559 226.611 76.0929 227.051 80.5509 231.576C80.5859 231.612 80.6209 231.646 80.6559 231.681L152.627 302.598C169.118 318.847 178.576 341.444 178.576 364.596V472.748H178.577Z" fill="#F26D3D"/>
<path d="M511.76 104.467C511.76 97.7341 508.915 91.3111 503.748 86.3821C497.685 80.5971 488.933 77.3891 480.323 77.7901C464.144 78.5511 451.47 92.0991 451.47 108.633V116.025C449.808 115.681 448.116 115.475 446.413 115.417C446.392 115.417 445.511 115.398 445.35 115.398C428.64 115.398 415.047 128.992 415.047 145.701V219.66L345.334 288.353C325.054 308.336 313.422 336.125 313.422 364.597V482.747C313.422 488.27 317.899 492.747 323.422 492.747H393.714C399.237 492.747 403.714 488.27 403.714 482.747V403.351L481.69 340.454C481.858 340.319 482.021 340.179 482.179 340.033C500.649 323.056 511.512 299.263 511.979 274.75C511.994 273.949 512 273.143 511.998 272.329C511.904 237.934 511.76 128.053 511.76 104.467V104.467ZM445.286 135.398L445.775 135.407C447.856 135.49 449.812 136.18 451.471 137.411V209.844C446.178 207.878 440.515 207.359 435.048 208.257V145.701C435.048 140.021 439.67 135.399 445.286 135.398V135.398ZM491.984 274.373C491.622 293.345 483.203 311.815 468.875 325.098L387.436 390.787C385.083 392.685 383.714 395.547 383.714 398.571V472.748H333.422V364.598C333.422 341.447 342.88 318.849 359.371 302.6L431.341 231.683C431.377 231.648 431.412 231.613 431.446 231.578C435.907 227.05 442.954 226.611 447.899 230.508C448.234 230.81 448.896 231.41 449.217 231.702C450.981 233.54 452.118 235.832 452.509 238.346C453.121 242.272 451.878 246.143 449.096 248.967C449.068 248.995 449.04 249.024 449.013 249.052L413.489 285.997C409.661 289.978 409.785 296.308 413.766 300.137C417.746 303.964 424.077 303.842 427.906 299.86L463.396 262.95C470.524 255.68 473.84 245.337 472.27 235.264C472.073 234.003 471.805 232.763 471.468 231.55V108.633C471.468 102.896 475.861 98.0221 481.26 97.7681C484.42 97.6261 487.82 98.8311 489.94 100.853C491.146 102.003 491.757 103.219 491.757 104.467C491.757 128.061 491.902 237.978 491.997 272.384C492.001 273.052 491.996 273.717 491.984 274.373V274.373Z" fill="#F26D3D"/>
<path d="M398.53 321.88C396.892 317.885 392.702 315.356 388.403 315.745C384.276 316.119 380.709 319.106 379.645 323.114C378.587 327.099 380.128 331.422 383.478 333.831C386.862 336.265 391.561 336.302 394.985 333.925C398.806 331.274 400.321 326.179 398.53 321.88V321.88Z" fill="#F26D3D"/>
</g>
<defs>
<clipPath id="clip0">
<rect width="512" height="512" fill="white"/>
</clipPath>
</defs>
</svg>
